src/svgs/contraception.svg

<svg xmlns="http://www.w3.org/2000/svg" viewBox="0 0 24 24" width="512" height="512" aria-labelledby="clcontraception-desc clcontraception-title"><title id="clcontraception-title">Contraception Icon</title><desc id="clcontraception-desc">A picture depicting a pill.</desc><path d="M1 2l2 2-2 2 2 2-2 2 2 2-2 2 2 2-2 2 2 2-2 2h22l-2-2 2-2-2-2 2-2-2-2 2-2-2-2 2-2-2-2 2-2zm11 17A6.993 6.993 0 015.786 8.786l1.527 1.527A4.947 4.947 0 007 12a5 5 0 105-5 4.95 4.95 0 00-2.375.625L8.154 6.154A7 7 0 1112 19z"/></svg>

<svg xmlns="http://www.w3.org/2000/svg" viewBox="0 0 24 24"><path d="M1,2,3,4,1,6,3,8,1,10l2,2L1,14l2,2L1,18l2,2L1,22H23l-2-2,2-2-2-2,2-2-2-2,2-2L21,8l2-2L21,4l2-2ZM12,19A6.993,6.993,0,0,1,5.786,8.786l1.527,1.527A4.947,4.947,0,0,0,7,12a5,5,0,1,0,5-5,4.95,4.95,0,0,0-2.375.625L8.154,6.154A7,7,0,1,1,12,19Z"/></svg>
